X: 1040
T:Maggie Brown (A20)
N: page A20
N: heptatonic
R: Double Jig
M:6/8
L:1/8
K:G
S:From Ryan's Mammoth Collection
vg|"G"dBG "Em"GAB|"C"vE2uE"Am"vE2B|"D"AFD DEF|\
"G"vG2vGuG2g|dBG "Em"Bcd|
"C"E2E"Am"E2c|"D"AFD DEF|"G"G2GG2::\
v(g/a/)|"G"bgb "D"afd|"C"efg gfe|"G"dBg "Em"dBG|
"D"AFD D2v(g/a/)|"G"bgb "D"afd|"Em"efg "Em"gfe|\
"D"faf "A"gec|"D"vd2vd def|"C"ece "G"dBd|
"D7"cac "G"BgB|"Am"Ace "G"dBG|"D"FAF "D7"DEF|\
"G"GAB "Em"EFG|"Am"ABc "D"def|"G"gdB "D7"cAF|"G"G3-G2:|
